X:138
T:Waltzes simple chords 3
M:3/4
L:1/8
K:Bm
A2 [d4D,4F,4A,4] | d2 [e2A2c2E2G2]>d2 | e2 [f2D,2F,2A,2] a2 | f2 [e2A2c2E2G2]>d2 | e2 [f2D,2F,2A,2]>e2 |
d2 [d2G,2B,2D2] B2 | A2 [A2E,2G,2B,2] B2 | d2 [e4A,4C4E4G4] | A2 [d4D,4F,4A,4] |
d2 [e2A2c2E2G2]>d2 | e2 [f2D,2F,2A,2] a2 | f2 [e2A2c2E2G2]>d2 | e2 [f2D,2F,2A,2]>e2 |
d2 [d2G,2B,2D2] B2 | A2 [A2A,2C2E2G2] B2 | d2 [d4D,4F,4A,4] | f2 [a4D,4F,4A,4] |
b2 [a2D,2F,2A,2] f2 | d2 [a4D,4F,4A,4] | b2 [a2D,2F,2A,2] f2 | d2 [a2D,2F,2A,2] f2 |
d2 [a2D,2F,2A,2] f2 | d2 [b2E,2G,2B,2] ag | f2 [e4A,4C4E4G4] | A2 [d4D,4F,4A,4] |
d2 [e2A2c2E2G2]>d2 | e2 [f2D,2F,2A,2] a2 | f2 [e2A2c2E2G2]>d2 | e2 [f2D,2F,2A,2]>e2 |
d2 [d2G,2B,2D2] B2 | A2 [A2A,2C2E2G2] B2 | d2 [d4D,4F,4A,4] |


